src/assets/sensei/christian.svg

<svg width="85" height="152" viewBox="0 0 85 152" fill="none" xmlns="http://www.w3.org/2000/svg">
<g clip-path="url(#clip0_256_55)">
<path d="M83.98 128.4L83.58 127.51C83.58 127.51 83.54 127.42 83.46 127.25C83.37 127.12 83.25 126.76 83.08 126.32C82.93 125.83 82.75 125.18 82.58 124.32C82.41 123.47 82.23 122.46 82.1 121.27C81.82 118.93 81.61 116 81.31 112.76C81.03 109.51 80.68 105.92 79.92 102.2C79.57 100.34 79.05 98.45 78.48 96.56C77.86 94.67 77.13 92.78 76.2 90.97C75.74 90.07 75.22 89.18 74.68 88.33C74.1 87.49 73.56 86.65 72.91 85.88C72.59 85.49 72.28 85.11 71.97 84.73C71.63 84.37 71.29 84.02 70.96 83.67C70.31 82.96 69.59 82.36 68.91 81.78C67.53 80.63 66.14 79.7 64.87 78.99C63.69 78.24 62.25 77.67 61.19 77.2C60.69 77 60.27 76.82 59.92 76.68L53.47 69.16H30.9L24.45 76.68C24.1 76.82 23.68 76.99 23.18 77.2C22.13 77.66 20.69 78.24 19.5 78.99C18.24 79.71 16.85 80.64 15.46 81.78C14.77 82.37 14.06 82.96 13.41 83.67C13.08 84.02 12.74 84.37 12.4 84.73C12.09 85.11 11.78 85.49 11.46 85.88C10.81 86.65 10.28 87.49 9.69002 88.33C9.16002 89.19 8.63002 90.07 8.17002 90.97C7.23002 92.78 6.51002 94.67 5.89002 96.56C5.33002 98.45 4.80002 100.35 4.45002 102.2C3.70002 105.92 3.35002 109.51 3.06002 112.76C2.76002 116 2.55002 118.93 2.27002 121.27C2.14002 122.45 1.96002 123.46 1.79002 124.32C1.62002 125.17 1.44002 125.82 1.29002 126.32C1.13002 126.77 1.00002 127.12 0.910021 127.25C0.830021 127.42 0.790021 127.51 0.790021 127.51L0.390021 128.4C-0.529979 130.43 0.130021 132.9 2.05002 134.18C3.33002 135.03 4.87002 135.15 6.21002 134.66C5.52002 135.87 5.10002 137.26 5.08002 138.76C5.02002 143.46 8.77002 147.32 13.47 147.38L22.14 147.5L26.48 147.54C27.49 147.54 28.51 147.56 29.52 147.56C29.4 148.02 29.29 148.48 29.19 148.95C29.05 149.63 29.2 150.38 29.67 150.97C30.51 152.02 32.05 152.19 33.1 151.35C33.76 150.82 34.37 150.26 34.98 149.7C35.56 149.12 36.18 148.57 36.73 147.98C36.91 147.8 37.07 147.62 37.25 147.44C38 147.41 38.76 147.38 39.51 147.35C40.48 147.31 41.45 147.25 42.42 147.19C43.39 147.25 44.36 147.31 45.33 147.35C46.08 147.38 46.84 147.41 47.59 147.44C47.76 147.62 47.93 147.8 48.11 147.98C48.67 148.57 49.28 149.13 49.86 149.7C50.47 150.26 51.08 150.82 51.74 151.35C52.29 151.78 53.02 151.99 53.76 151.83C55.08 151.56 55.93 150.27 55.66 148.95C55.56 148.48 55.45 148.02 55.33 147.56C56.34 147.56 57.36 147.54 58.37 147.54L62.71 147.5L71.38 147.38C73.79 147.34 76.2 146.28 77.84 144.27C80.1 141.52 80.34 137.78 78.75 134.83C79.69 135.03 80.69 134.96 81.63 134.53C83.96 133.47 85 130.72 83.94 128.39L83.98 128.4ZM40.78 134.97C40.37 134.87 39.95 134.77 39.54 134.67C39.97 134.42 40.4 134.17 40.83 133.91C41.06 133.77 41.3 133.61 41.52 133.45C41.86 133.21 42.17 132.94 42.47 132.67C42.97 133.13 43.51 133.54 44.11 133.91C44.53 134.17 44.97 134.42 45.4 134.67C44.99 134.77 44.57 134.87 44.16 134.97C43.6 135.11 43.04 135.25 42.48 135.4C41.92 135.25 41.36 135.11 40.8 134.97H40.78ZM9.57002 131.18C9.76002 130.82 9.96002 130.42 10.18 129.96C10.58 129.07 10.99 128.02 11.35 126.88C11.71 125.74 12.05 124.47 12.37 123.15C13.03 120.49 13.61 117.54 14.29 114.5C15 111.48 15.79 108.36 16.82 105.54C17.25 104.3 17.76 103.15 18.29 102.07L17.36 124.89C14.75 126.96 12.16 129.07 9.58002 131.19L9.57002 131.18ZM67.03 124.45L66.12 102.07C66.65 103.16 67.16 104.3 67.59 105.54C68.62 108.37 69.41 111.48 70.12 114.5C70.79 117.54 71.38 120.49 72.04 123.15C72.36 124.47 72.7 125.73 73.06 126.88C73.42 128.03 73.83 129.08 74.23 129.96C74.31 130.13 74.39 130.29 74.47 130.44C72.01 128.42 69.54 126.41 67.04 124.44L67.03 124.45Z" fill="#27004B"/>
<path d="M18.1201 107.66L17.55 120.66H67.13L66.56 107.66H18.1201Z" fill="#00C10D" stroke="#00C10D" stroke-linecap="round" stroke-linejoin="round"/>
<path d="M28.22 115.56C28.22 115.56 27.84 124.44 32 131.61L35.97 128.4C35.97 128.4 32.76 114.99 28.79 110.84L28.22 115.56Z" fill="#14A01D" stroke="#14A01D" stroke-width="1.13" stroke-linecap="round" stroke-linejoin="round"/>
<path d="M24.2401 107.66L23.8501 120.66H28.2401L28.6201 107.66H24.2401Z" fill="#14A01D" stroke="#14A01D" stroke-linecap="round" stroke-linejoin="round"/>
<path d="M25.9501 115.94C25.9501 115.94 21.0401 125.95 20.8501 131.05L23.8701 135.39C23.8701 135.39 29.3501 124.06 28.2101 117.64L25.9401 115.94H25.9501Z" fill="#14A01D" stroke="#14A01D" stroke-width="1.13" stroke-linecap="round" stroke-linejoin="round"/>
<path d="M9.84009 41.48C9.84009 58.01 26.5201 71.4101 42.0301 71.4101C57.5401 71.4101 74.2201 58.01 74.2201 41.48C74.2201 24.95 59.8101 11.55 42.0301 11.55C24.2501 11.55 9.84009 24.94 9.84009 41.48Z" fill="#FFDBC5"/>
<path d="M42.03 0C19.03 0 2.52999 19.26 0.389988 40.51C-1.92001 63.39 10.14 77.62 42.03 77.62C73.92 77.62 86.37 63.35 83.67 40.51C81.48 21.91 65.03 0 42.03 0ZM64.33 53.51H19.68C14.69 53.51 11.1 48.71 12.52 43.92L13.18 41.69C16.96 28.91 28.69 20.15 42.01 20.15C55.33 20.15 67.07 28.92 70.84 41.69L71.5 43.92C72.92 48.71 69.33 53.51 64.34 53.51H64.33Z" fill="#27004B"/>
<g style="mix-blend-mode:soft-light">
<path d="M71.5001 41.9501L70.8401 39.7201C67.0601 26.9401 55.3301 18.1801 42.0101 18.1801C28.6901 18.1801 16.9501 26.9501 13.1801 39.7201L12.5201 41.9501C12.1501 43.2001 12.1301 44.4401 12.3701 45.6001C12.4101 45.3901 12.4501 45.1801 12.5201 44.9701L13.1801 42.7401C16.9601 29.9601 28.6901 21.2001 42.0101 21.2001C55.3301 21.2001 67.0701 29.9701 70.8401 42.7401L71.5001 44.9701C71.5601 45.1801 71.6001 45.3901 71.6501 45.6001C71.9001 44.4401 71.8701 43.1901 71.5001 41.9501Z" fill="#453434"/>
</g>
<g style="mix-blend-mode:soft-light">
<path d="M42.0301 74.6001C13.4001 74.6001 0.760138 63.1301 0.140138 44.2301C-0.519862 64.9201 11.9001 77.6201 42.0301 77.6201C72.1601 77.6201 84.7501 65.0601 84.0001 44.6501C83.4101 63.2701 70.4501 74.6001 42.0301 74.6001Z" fill="#453434"/>
</g>
<path d="M23.95 42.34C23.95 44.55 25.7499 46.35 27.9599 46.35C30.1699 46.35 31.9699 44.55 31.9699 42.34" stroke="#293330" stroke-width="2.1" stroke-miterlimit="10" stroke-linecap="round"/>
<path d="M60.4399 42.34C60.4399 44.55 58.6399 46.35 56.4299 46.35C54.2199 46.35 52.4199 44.55 52.4199 42.34" stroke="#293330" stroke-width="2.1" stroke-miterlimit="10" stroke-linecap="round"/>
<path d="M60.4201 53.39C60.4201 51.61 58.1101 50.16 55.2601 50.16C52.4101 50.16 50.1001 51.6 50.1001 53.39C50.1001 55.18 52.4101 56.62 55.2601 56.62C58.1101 56.62 60.4201 55.18 60.4201 53.39Z" fill="#FFB0B0"/>
<path d="M33.9699 53.39C33.9699 51.61 31.6599 50.16 28.8099 50.16C25.9599 50.16 23.6499 51.6 23.6499 53.39C23.6499 55.18 25.9599 56.62 28.8099 56.62C31.6599 56.62 33.9699 55.18 33.9699 53.39Z" fill="#FFB0B0"/>
</g>
<defs>
<clipPath id="clip0_256_55">
<rect width="84.39" height="151.88" fill="white"/>
</clipPath>
</defs>
</svg>

<svg fill="none" height="152" viewBox="0 0 85 152" width="85" xmlns="http://www.w3.org/2000/svg" xmlns:xlink="http://www.w3.org/1999/xlink"><clipPath id="a"><path d="m0 0h84.39v151.88h-84.39z"/></clipPath><g clip-path="url(#a)"><path d="m83.98 128.4-.4-.89s-.04-.09-.12-.26c-.09-.13-.21-.49-.38-.93-.15-.49-.33-1.14-.5-2-.17-.85-.35-1.86-.48-3.05-.28-2.34-.49-5.27-.79-8.51-.28-3.25-.63-6.84-1.39-10.56-.35-1.86-.87-3.75-1.44-5.64-.62-1.89-1.35-3.78-2.28-5.59-.46-.9-.98-1.79-1.52-2.64-.58-.84-1.12-1.68-1.77-2.45-.32-.39-.63-.77-.94-1.15-.34-.36-.68-.71-1.01-1.06-.65-.71-1.37-1.31-2.05-1.89-1.38-1.15-2.77-2.08-4.04-2.79-1.18-.75-2.62-1.32-3.68-1.79-.5-.2-.92-.38-1.27-.52l-6.45-7.52h-22.57l-6.45 7.52c-.35.14-.77.31-1.27.52-1.05.46-2.49 1.04-3.68 1.79-1.26.72-2.65 1.65-4.04 2.79-.69.59-1.4 1.18-2.05 1.89-.33.35-.67.7-1.01 1.06-.31.38-.62.76-.94 1.15-.65.77-1.18 1.61-1.76998 2.45-.53.86-1.06 1.74-1.52 2.64-.94 1.81-1.66 3.7-2.28 5.59-.56 1.89-1.09 3.79-1.44 5.64-.75 3.72-1.1 7.31-1.39 10.56-.3 3.24-.51 6.17-.79 8.51-.13 1.18-.31 2.19-.48 3.05-.17.85-.35 1.5-.5 2-.16.45-.29.8-.379999.93-.08.17-.12.26-.12.26l-.4.89c-.92 2.03-.26 4.5 1.659999 5.78 1.28.85 2.82.97 4.16.48-.69 1.21-1.11 2.6-1.13 4.1-.06 4.7 3.69 8.56 8.38998 8.62l8.67.12 4.34.04c1.01 0 2.03.02 3.04.02-.12.46-.23.92-.33 1.39-.14.68.01 1.43.48 2.02.84 1.05 2.38 1.22 3.43.38.66-.53 1.27-1.09 1.88-1.65.58-.58 1.2-1.13 1.75-1.72.18-.18.34-.36.52-.54.75-.03 1.51-.06 2.26-.09.97-.04 1.94-.1 2.91-.16.97.06 1.94.12 2.91.16.75.03 1.51.06 2.26.09.17.18.34.36.52.54.56.59 1.17 1.15 1.75 1.72.61.56 1.22 1.12 1.88 1.65.55.43 1.28.64 2.02.48 1.32-.27 2.17-1.56 1.9-2.88-.1-.47-.21-.93-.33-1.39 1.01 0 2.03-.02 3.04-.02l4.34-.04 8.67-.12c2.41-.04 4.82-1.1 6.46-3.11 2.26-2.75 2.5-6.49.91-9.44.94.2 1.94.13 2.88-.3 2.33-1.06 3.37-3.81 2.31-6.14zm-43.2 6.57c-.41-.1-.83-.2-1.24-.3.43-.25.86-.5 1.29-.76.23-.14.47-.3.69-.46.34-.24.65-.51.95-.78.5.46 1.04.87 1.64 1.24.42.26.86.51 1.29.76-.41.1-.83.2-1.24.3-.56.14-1.12.28-1.68.43-.56-.15-1.12-.29-1.68-.43zm-31.20998-3.79c.19-.36.39-.76.60998-1.22.4-.89.81-1.94 1.17-3.08s.7-2.41 1.02-3.73c.66-2.66 1.24-5.61 1.92-8.65.71-3.02 1.5-6.14 2.53-8.96.43-1.24.94-2.39 1.47-3.47l-.93 22.82c-2.61 2.07-5.2 4.18-7.77998 6.3zm57.45998-6.73-.91-22.38c.53 1.09 1.04 2.23 1.47 3.47 1.03 2.83 1.82 5.94 2.53 8.96.67 3.04 1.26 5.99 1.92 8.65.32 1.32.66 2.58 1.02 3.73s.77 2.2 1.17 3.08c.08.17.16.33.24.48-2.46-2.02-4.93-4.03-7.43-6z" fill="#27004b"/><g stroke-linecap="round" stroke-linejoin="round"><path d="m18.1201 107.66-.5701 13h49.58l-.57-13z" fill="#00c10d" stroke="#00c10d"/><path d="m28.22 115.56s-.38 8.88 3.78 16.05l3.97-3.21s-3.21-13.41-7.18-17.56z" fill="#14a01d" stroke="#14a01d" stroke-width="1.13"/><path d="m24.2401 107.66-.39 13h4.39l.38-13z" fill="#14a01d" stroke="#14a01d"/><path d="m25.9501 115.94s-4.91 10.01-5.1 15.11l3.02 4.34s5.48-11.33 4.34-17.75l-2.27-1.7z" fill="#14a01d" stroke="#14a01d" stroke-width="1.13"/></g><path d="m9.84009 41.48c0 16.53 16.68001 29.9301 32.19001 29.9301s32.19-13.4001 32.19-29.9301-14.41-29.93-32.19-29.93-32.19001 13.39-32.19001 29.93z" fill="#ffdbc5"/><path d="m42.03 0c-23 0-39.50001 19.26-41.640012 40.51-2.309998 22.88 9.750012 37.11 41.640012 37.11s44.34-14.27 41.64-37.11c-2.19-18.6-18.64-40.51-41.64-40.51zm22.3 53.51h-44.65c-4.99 0-8.58-4.8-7.16-9.59l.66-2.23c3.78-12.78 15.51-21.54 28.83-21.54s25.06 8.77 28.83 21.54l.66 2.23c1.42 4.79-2.17 9.59-7.16 9.59z" fill="#27004b"/><path d="m71.5001 41.9501-.66-2.23c-3.78-12.78-15.51-21.54-28.83-21.54s-25.06 8.77-28.83 21.54l-.66 2.23c-.37 1.25-.39 2.49-.15 3.65.04-.21.08-.42.15-.63l.66-2.23c3.78-12.78 15.51-21.54 28.83-21.54s25.06 8.77 28.83 21.54l.66 2.23c.06.21.1.42.15.63.25-1.16.22-2.41-.15-3.65z" fill="#453434"/><path d="m42.0301 74.6001c-28.63 0-41.269962-11.47-41.889962-30.37-.66 20.69 11.759962 33.39 41.889962 33.39s42.72-12.56 41.97-32.97c-.59 18.62-13.55 29.95-41.97 29.95z" fill="#453434"/><path d="m23.95 42.34c0 2.21 1.7999 4.01 4.0099 4.01s4.01-1.8 4.01-4.01" stroke="#293330" stroke-linecap="round" stroke-miterlimit="10" stroke-width="2.1"/><path d="m60.4399 42.34c0 2.21-1.8 4.01-4.01 4.01s-4.01-1.8-4.01-4.01" stroke="#293330" stroke-linecap="round" stroke-miterlimit="10" stroke-width="2.1"/><path d="m60.4201 53.39c0-1.78-2.31-3.23-5.16-3.23s-5.16 1.44-5.16 3.23 2.31 3.23 5.16 3.23 5.16-1.44 5.16-3.23z" fill="#ffb0b0"/><path d="m33.9699 53.39c0-1.78-2.31-3.23-5.16-3.23s-5.16 1.44-5.16 3.23 2.31 3.23 5.16 3.23 5.16-1.44 5.16-3.23z" fill="#ffb0b0"/></g></svg>
